!!!OTL: RINGEL RINGEL ROSE
!!!ARE: Europa, Mitteleuropa, Deutschland, Westfalen
!!!SCT: K2083
!!!YEM: Copyright 1995, estate of Helmut Schaffrath.
**kern
*ICvox
*Ivox
*M2/4
*k[b-e-]
*B-:
=1
{8dd
8dd
8cc
8cc
=2
4b-
4f}
=3
{8dd
8dd
8cc
8cc
=4
4b-
4f}
=5
{4dd
8cc
8cc
=6
4b-
4f}
=7
{8dd
8dd
8cc
8cc
=8
4b-
4f}
=9
{8cc
8cc
8a
8a
=10
8ff
8ff
8dd
8dd}
=11
{8ee-
8ee-
8cc
8cc
=12
2ff}
==
!!!AGN: Kinder - Lied, Reigen, Tanz - Spiel
!!!ONB: ESAC (Essen Associative Code) Database: KINDER
!!!AMT: simple duple
!!!AIN: vox
!!!EED: Helmut Schaffrath
!!!EEV: 1.0
*-
